src/assets/outline/Mobile.svg

<svg width="24" height="24" viewBox="0 0 24 24"  xmlns="http://www.w3.org/2000/svg">
<path d="M15 22.75H9C4.59 22.75 3.25 21.41 3.25 17V7C3.25 2.59 4.59 1.25 9 1.25H15C19.41 1.25 20.75 2.59 20.75 7V17C20.75 21.41 19.41 22.75 15 22.75ZM9 2.75C5.42 2.75 4.75 3.43 4.75 7V17C4.75 20.57 5.42 21.25 9 21.25H15C18.58 21.25 19.25 20.57 19.25 17V7C19.25 3.43 18.58 2.75 15 2.75H9Z" />
<path d="M14 6.25H10C9.59 6.25 9.25 5.91 9.25 5.5C9.25 5.09 9.59 4.75 10 4.75H14C14.41 4.75 14.75 5.09 14.75 5.5C14.75 5.91 14.41 6.25 14 6.25Z" />
<path d="M12.0002 19.8598C10.7302 19.8598 9.7002 18.8298 9.7002 17.5598C9.7002 16.2898 10.7302 15.2598 12.0002 15.2598C13.2702 15.2598 14.3002 16.2898 14.3002 17.5598C14.3002 18.8298 13.2702 19.8598 12.0002 19.8598ZM12.0002 16.7498C11.5602 16.7498 11.2002 17.1098 11.2002 17.5498C11.2002 17.9898 11.5602 18.3498 12.0002 18.3498C12.4402 18.3498 12.8002 17.9898 12.8002 17.5498C12.8002 17.1098 12.4402 16.7498 12.0002 16.7498Z" />
</svg>

<?xml version="1.0" encoding="UTF-8"?>
<svg width="24" height="24" viewBox="0 0 24 24" xmlns="http://www.w3.org/2000/svg">
 <path d="m15 22.75h-6c-4.41 0-5.75-1.34-5.75-5.75v-10c0-4.41 1.34-5.75 5.75-5.75h6c4.41 0 5.75 1.34 5.75 5.75v10c0 4.41-1.34 5.75-5.75 5.75zm-6-20c-3.58 0-4.25 0.68-4.25 4.25v10c0 3.57 0.67 4.25 4.25 4.25h6c3.58 0 4.25-0.68 4.25-4.25v-10c0-3.57-0.67-4.25-4.25-4.25h-6z"/>
 <path d="m14 6.25h-4c-0.41 0-0.75-0.34-0.75-0.75s0.34-0.75 0.75-0.75h4c0.41 0 0.75 0.34 0.75 0.75s-0.34 0.75-0.75 0.75z"/>
 <path d="m12 19.86c-1.27 0-2.3-1.03-2.3-2.3s1.03-2.3 2.3-2.3 2.3 1.03 2.3 2.3-1.03 2.3-2.3 2.3zm0-3.11c-0.44 0-0.8 0.36-0.8 0.8s0.36 0.8 0.8 0.8 0.8-0.36 0.8-0.8-0.36-0.8-0.8-0.8z"/>
</svg>
